X:1
T:Samos, 77.73
T:Samos, 77.73
T:William Henry Havergal (1793–1870)
T:Public Domain Courtesy of the Cyber Hymnal™
C:William Henry Havergal (1793–1870)
Z:Public Domain
Z:Courtesy of the Cyber Hymnal™
%%score 1 ( 2 3 )
L:1/8
Q:1/4=105
M:4/4
K:A
V:1 treble 
V:2 bass 
V:3 bass 
V:1
 [EA]2 [CE]2 [Ec]2 [DB]2 | [EA]2 [DF]2 [CE]4 | [DF]2 [EA]2 [Dd]2 [Ec]2 | [DB]2 [^DA]2 [Ee]4 | %4
 [Ec]2 [CA]2 [Dd]2 [Ec]2 | [DB]2 [^DA]2 [EG]4 | [EA]4 [DF]4 | [CA]8 |] %8
V:2
 [A,C]2 A,2 [A,,A,]2 (F,G,) | [C,A,]2 [D,A,]2 [A,,A,]4 | [D,A,]2 [C,A,]2 [B,,G,]2 [A,,A,]2 | %3
 [D,F,]2 [F,A,]2 [E,G,]4 | A,2 A,2 [F,A,]2 A,2 | [D,F,]2 [F,A,]2 [E,B,]4 | [C,A,]4 [D,A,]4 | %7
 [A,,A,]8 |] %8
V:3
 x2 A,2 B,,2 x2 | x8 | x8 | x8 | A,2 A,2 A,2 x2 | x8 | x8 | x8 |] %8

